X: 12132
T: Everybody Fancies Helen Mirren
R: reel
M: 4/4
K: Edorian
D|EGBE DFAD|EGBd cAFD|EGBE DFAF|GFED EDB,D|
EGBE DFAD|EGBd cA (3Bcd|edBA ~B2EF|GABd cAF:|
f|edBA ~B2B2|edBd edfd|edBA B2EF|GABd cAFf|
edBA BEE2|edBA GFED|E2EF EGBE|GABd cAF:|

